X: 12
T:Green Grow the Rushes O. BF13.011
M:4/4
L:1/8
Q:90
S:J.Lishman()MS,c1825,Lakes,Browne Coll.
R:Reel
O:England
A:Lakes
N:No key or time signature given
Z:vmp.Cherri Graebe.
K:C major
"As Written"GGAB G2G2|ABcd eAAcc3|\
e d/2c/2B/2A/2 G2 AcBA|EE2E2:|!
|:dggf gdde|aagb eefg|g d/2c/2B/2A/2 G A2|BcAG E E2|!
dfge gdde|aaga eefg|begd gBdG|cBAG E E:|]
